X: 5
T: The Blackhaired Lass
R: reel
M: 4/4
L: 1/8
K: Amix
|c2AB cdec|d2gd BGBd|cBAB cdec|dfec A3B|
|c2AB cdec|d2gd BGBd|cBAB cdec|dfec A3B|
cdef g2eg|f2df gfed|cdef geag|fdec A3B|
cdef g2eg|f2df g2fg|afge fdec|dfec A3B||


Tune 237	Setting 21736

